X:1809
T:Prince of Wales
%
P:Prince of Wales
C:Niel Gow
R:Strathspey (8x40) ABABB
B:RSCDS 18-9
Z:Anselm Lingnau <anselm@strathspey.org>
M:4/4
L:1/8
K:Bb
D/E/|"Bb"F>G F>D CD/E/ F>D|F>G F>D "Cm"G/F/E/D/ "F"CD/E/|\
     "Bb"F>G F>D "F"F>G "Gm"B>c|
                                "Bb"d>B "Eb"e/d/c/B/ "Bb"F<B B D/E/|\
     "Bb"F>G F>D CD/E/ F>D|F>G F>D "Cm"G/F/E/D/ "F"CD/E/|
     "Bb"F>G F>D "F"F>G "Gm"B>c|"Bb"d>B "Eb"e/d/c/B/ "Bb"F<B B||\
g|"Bb"f>B "C7"e/d/c/B/ "Bb"F>B D>g|
                                   f>B e/d/c/B/ "C7"g>c "F"c>b|\
  "Bb"f>B "C7"e/d/c/B/ "Bb"F>B D>B|"F"A/B/c F>e "Bb"d<B B>g|
  "Bb"f>B e/d/c/B/ F>B D>g|f>B e/d/c/B/ "C7"g<c "F7"c>e|\
  "Bb"d<f "Eb"e>g "Bb"d<f "F"c>d|"Bb"F>G "Eb"B>c "Bb"d<B B|]
%
P: Buckingham House
C: Abraham Mackintosh
R: strathspey
B: RSCDS 18-9
Z: 2006 John Chambers <jc:trillian.mit.edu>
M: C
L: 1/16
K: Dm
E \
| "Dm"F3D DDD2 A,3D D3E | "Dm"F3D DDD2 "Gm"GAB2 "A7"A3G \
| "Dm"F3D DDD2 A,3D D3F | "C"EFG2 c3G EC3 G3 :|
E \
| "Dm"Dd3 d3c d3e d3c | "Dm"Ad3 d3e "Dm"f3d "A"e3^c \
| "Dm"d3d f3d "C"e3c "Dm"f3d | "C"c3d c3G EC3 G3 :|
